X:665
T:Tom O'Connor's
R:jig
D:Sliabh Notes: Gleanntan
Z:Transcribed by Dave Marshall
M:6/8
K:D
|: ABA A2G | FAd ~f3 | efe ede | gfe dcB |
ABA A2G | FAd ~f3 | ede gfe |1 ~d3 dcB :|2 d3 dAG
|: F2d dcd | ecA A2G | F2d dcd | ecA A2g |
faf gfe | B2e dcB | ABA GFE |1 D3 D2E :| D3 DFG |
